X:1
T:Title
%%score { ( 1 3 ) | ( 2 4 ) }
L:1/8
M:6/8
K:A
V:1 treble nm="Grand Piano"
V:3 treble 
V:2 bass 
V:4 bass 
V:1
 z3 z2[Q:1/4=100] E | EFG A2 G | [EA]2 [GB] c2 d | z2 G G2 e | c6 | EFG A2 [B,EG] | %6
 [A,EA]2 [EGB] .[EAc]3 | z2 [EG] [EG]2 ^d | [Ge]3- [Ge]2 [Ge] | [F^d]cB B,-[B,G]F | %10
 E2 G [GB]2 [Ge] | [B^d]cB B,-[B,G]F |[M:5/8] E-E- E3 |[M:1/8] E |[M:3/4] c6 | A6 | %16
 CD ^D [CE]2 [CD] | F4 z2 | c6 | A6 | [A,^DF][G,DG] [DA] [DB]2 [Dc] | B4 z2 | c6 | A6 | %24
 CD ^D [CE]2 [CD] | F4 z2 | A4 z2 | d-[Ad-] [Ad] [A^d]3 | [Ae][EAc] [CA] [DGB]2 [DGc] | %29
[M:5/8] [CA]-[CA]- [CA]3 |[M:1/8] [G,E] |[M:3/4] c6 | A6 | CD ^D [CE]2 [CD] | F4 z2 | c6 | A6 | %37
 [A,^DF][G,DG] [DA] [DB]2 [Dc] | B4 z2 | c6 | A6 | CD ^D [CE]2 [CD] | F4 z2 | A4 z2 | %44
 d-[Ad-] [Ad] [A^d]3 | [Ae][EAc] [CA] [DGB]2 [DGc] |[M:5/8] [CA]-[CA]- [CA]3 |[M:1/8] E | %48
[M:3/4] EF G A2 [B,EG] | [A,EA]2 [EGB] [EAc]2 d | z2 G G2 e |[M:5/8] c-c- c3 |[M:1/8] E | %53
[M:3/4] EF G A2 A |[M:7/8] AB[Ac] [Ad]3 [A^d] |[M:3/4] [Ae][EAc] [CA] [DGB]2 [EGc] | %56
[M:5/8] [CA]-[CA]- [CA]3 |[M:6/4] [CA]2 [CA]2 [DB]2 [Ec]2 [Fd]4 | [Fd]2 [Ec]4- [Ec]6 | %59
 [A,CA]2 [A,CA]2 [A,DA]2 [A,EA]2 [A,FA]4 |[M:5/4] [A,F]2 [CEA]2- [CEA]6- | [CEA]2 z2 z2 z4 |] %62
V:2
 z3 z2 E, | E,F,G, A,2 [E,B,E] | [B,,A,]2 [E,E] .[A,EA]3 | z2 [E,E] .[E,E]3 | z2 [A,E] [A,E]2 E, | %5
 E,F,G, A,2 E, | C,2 E, A,2[K:treble] c | B6 | [E,B,]3- [E,B,]2 [E,B,] | %9
 z[K:treble] AG[K:bass] z E[A,^D] | [E,G,]2 [E,B,E] [E,E]2 [E,B,] | %11
 z[K:treble] AG[K:bass] z E[A,^D] |[M:5/8] [E,G,]-[E,G,]- [E,G,]3 |[M:1/8] [E,G,] | %14
[M:3/4] [A,,A,][A,,A,] [A,,A,] .[A,,A,]3 | A,,A,, A,, A,,2 [A,,A,] | [A,,A,]2 z [A,,A,]2 [A,,A,] | %17
 [A,,A,][A,,A,] [A,,A,] [A,,A,]2 [A,,A,] | [A,,A,][A,,A,] [A,,A,] [A,,A,]2 [A,,A,] | %19
 A,,A,, A,, A,,2 A,, | B,,B,, [B,,F,] [B,,F,]2 [B,,A,] | [E,G,E][E,G,] [E,G,] [E,G,E]2 [E,B,E] | %22
 [A,E]A, A, A,2 A,, | A,,A,, A,, A,,2 [A,,A,] | [A,,A,]2 z [A,,A,]2 [A,,A,] | %25
 [A,,A,][A,,A,] [A,,A,] [A,,A,]2 [A,C] | [A,C]A, A, [=G,A,E]3 | [F,A,][F,A,] [F,A,] [^E,=C]3 | %28
 [E,C]E, E, E,2 E, |[M:5/8] A,,-A,,- A,,3 |[M:1/8] E, |[M:3/4] [A,,A,][A,,A,] [A,,A,] .[A,,A,]3 | %32
 A,,A,, A,, A,,2 [A,,A,] | [A,,A,]2 z [A,,A,]2 [A,,A,] | [A,,A,][A,,A,] [A,,A,] [A,,A,]2 [A,,A,] | %35
 [A,,A,][A,,A,] [A,,A,] [A,,A,]2 [A,,A,] | A,,A,, A,, A,,2 A,, | B,,B,, [B,,F,] [B,,F,]2 [B,,A,] | %38
 [E,G,E][E,G,] [E,G,] [E,G,E]2 [E,B,E] | [A,E]A, A, A,2 A,, | A,,A,, A,, A,,2 [A,,A,] | %41
 [A,,A,]2 z [A,,A,]2 [A,,A,] | [A,,A,][A,,A,] [A,,A,] [A,,A,]2 [A,C] | [A,C]A, A, [=G,A,E]3 | %44
 [F,A,][F,A,] [F,A,] [^E,=C]3 | [E,C]E, E, E,2 E, |[M:5/8] A,,-A,,- A,,3 |[M:1/8] E, | %48
[M:3/4] E,F, G, A,2 E, | C,2 D, .A,3 | z2 [E,E] .[E,E]3 |[M:5/8] z2 [A,E] [A,E]2 |[M:1/8] E, | %53
[M:3/4] E,F, G, A,2 A, |[M:7/8] A,[G,E][=G,E] [F,D]3 [^E,=C] |[M:3/4] [E,C]E, E, E,2 E, | %56
[M:5/8] A,,-A,,- A,,3 |[M:6/4] [A,,A,]2 [A,,A,]2 [A,,A,]2 [A,,A,]2 [D,A,]4 | [F,A,]2 A,4- A,6 | %59
 A,,2 A,,2 B,,2 C,2 D,4 |[M:5/4] D,2 A,,2- A,,6- | A,,2 z2 z2 z4 |] %62
V:3
 x6 | x6 | x6 | B6 | z2 A A2 E | x6 | x6 | x6 | x6 | z3 .[FA]3 | x6 | z3 .[FA]3 |[M:5/8] x5 | %13
[M:1/8] x |[M:3/4] EE E .E3 | [CE][CE] [CE] [CE]2 [CE] | x6 | =CC C [^CE]2 [CE] | EE E E2 E | %19
 [CE][CE] [CE] [CE]2 [A,CG] | x6 | z E E e2 d | z E E E2 [A,E] | [CE][CE] [CE] [CE]2 [CE] | x6 | %25
 =CC C [^CE]2 E | z C C c3 | .A2 z2 z2 | x6 |[M:5/8] x5 |[M:1/8] x |[M:3/4] EE E .E3 | %32
 [CE][CE] [CE] [CE]2 [CE] | x6 | =CC C [^CE]2 [CE] | EE E E2 E | [CE][CE] [CE] [CE]2 [A,CG] | x6 | %38
 z E E e2 d | z E E E2 [A,E] | [CE][CE] [CE] [CE]2 [CE] | x6 | =CC C [^CE]2 E | z C C c3 | %44
 .A2 z2 z2 | x6 |[M:5/8] x5 |[M:1/8] x |[M:3/4] x6 | x6 | B6 |[M:5/8] z2 A A2 |[M:1/8] x | %53
[M:3/4] x6 |[M:7/8] x7 |[M:3/4] x6 |[M:5/8] x5 |[M:6/4] x12 | x12 | x12 |[M:5/4] x10 | x10 |] %62
V:4
 x6 | x6 | x6 | x6 | x6 | x6 | x5[K:treble] x | z2 B, B,2 B, | x6 | %9
 .[B,,B,]3[K:treble][K:bass] B,,3 | x6 | .[B,,B,]3[K:treble][K:bass] B,,3 |[M:5/8] x5 |[M:1/8] x | %14
[M:3/4] x6 | x6 | x6 | x6 | x6 | x6 | x6 | x6 | x6 | x6 | x6 | x6 | x6 | x6 | x6 |[M:5/8] x5 | %30
[M:1/8] x |[M:3/4] x6 | x6 | x6 | x6 | x6 | x6 | x6 | x6 | x6 | x6 | x6 | x6 | x6 | x6 | x6 | %46
[M:5/8] x5 |[M:1/8] x |[M:3/4] x6 | x6 | x6 |[M:5/8] x5 |[M:1/8] x |[M:3/4] x6 |[M:7/8] x7 | %55
[M:3/4] x6 |[M:5/8] x5 |[M:6/4] x12 | x12 | x12 |[M:5/4] x10 | x10 |] %62

